X: 17783
T: Honeysuckle
R: waltz
M: 3/4
K: Aminor
|:"Am" E2 A2 B2|"C" c4 c2|"G"B2 G2 d2|"Am" e6|"G7"B2 c2 d2|"Am" g2 c2 a2|
"G" g2 f2 e2|"G" d6|"Dm"f2 e2 d2|"A"^c2 A2 G2|"Dm" F2 d2 c2|"G"B4 G2|
"C" c2 C2 D2|"G7" E2 G2 D2|"G7" E2 G2 B2|1 "C" c6:|2 "C" c4 B2||
|:"Em" e4 B2|"Em"e4 ^f2|"G" g2 b2 a2|"G" g4 e2|"G" d2 G2 A2|
"G" B2 c2 d2|"D" A4 D2|"D" ^F2 E2 D2|"C"C2 E2 G2|"D" D2 ^F2 A2 "G"|
"G" B2 G2 B2|"C"c4 c2|"G" B2 g2 e2|"D" d2 c2 B2|"D" A4 D2|"G" G6:|

